**kern	**kern
*staff2	*staff1
*clefF4	*clefG2
*k[b-e-]	*k[b-e-]
*M3/8	*M3/8
=184	=184
4BB- 4D 4F 4B-	(16b-LL
.	16f
.	16d)
.	16dd'
8BB- 8D 8F 8B-	16b-'
.	16f'JJ
=185	=185
4BB- 4D 4F 4B-	(16ffLL
.	16dd
.	16b-)
.	16bb-'
8BB- 8D 8F 8B-	16ff'
.	16dd'JJ
=186	=186
4BB- 4E- 4F 4A	(16ee-LL
.	16cc
.	16a)
.	16aa'
8BB- 8E- 8F 8A	16ee-'
.	16cc'JJ
=187	=187
4BB- 4E- 4F 4A	(16cccLL
.	16aa
.	16ee-)
.	16eee-'
8BB- 8E- 8F 8A	16ccc'
.	16aa'JJ
=188	=188
4BB- 4E- 4F 4A	(16ee-LL
.	16cc
.	16a)
.	16aa'
8BB- 8E- 8F 8A	16ee-'
.	16cc'JJ
=189	=189
4BB- 4E- 4F 4A	(16cccLL
.	16aa
.	16ee-)
.	16eee-'
8BB- 8E- 8F 8A	16ccc'
.	16aa'JJ
=190	=190
4BB- 4D 4F 4B-	(16ffLL
.	16dd
.	16b-)
.	16bb-'
8BB- 8D 8F 8B-	16ff'
.	16dd'JJ
=191	=191
4BB- 4D 4F 4B-	(16dddLL
.	16bb-
.	16ff)
.	16fff'
8BB- 8D 8F 8B-	16ddd'
.	16bb-'JJ
=192	=192
4BB- 4E- 4G	(16aaLL
.	16bb-)
.	(16ff#
.	16gg)
8BB- 8E- 8G	(16dd
.	16ee-JJ)
=193	=193
4BB- 4E- 4G	(16aLL
.	16b-)
.	(16f#
.	16g)
8BB- 8E- 8G	(16aa
.	16bb-JJ)
=194	=194
4BB- 4D 4F	(16aaLL
.	16bb-)
.	(16ee
.	16ff)
8BB- 8D 8F	(16cc#
.	16ddJJ)
=195	=195
4BB- 4D 4F	(16aLL
.	16b-)
.	(16e
.	16f)
8BB- 8D 8F	(16ee
.	16ffJJ)
=196	=196
8FF 8C 8F	(16eLL
.	16f)
4BB- 4D 4F	(16ee
.	16ff)
.	(16e
.	16fJJ)
=197	=197
8FF 8C 8F	(16eeLL
.	16ff)
4BB- 4D 4F	(16e
.	16f)
.	(16ee
.	16ffJJ)
=198	=198
4FF 4C 4F	(16eeLL
.	16ffJJ)
.	(16bLL
.	16ccJJ)
8r	(16g#LL
.	16aJJ)
=199	=199
4.r	(16eLL
.	16fJJ)
.	(16BLL
.	16cJJ)
.	(16G#LL
.	16AJJ)
=	=
*-	*-
